X: 1
T: Strike Home and Away    (C)
R: jig
M: 6/8
L: 1/8
Z: 2010,2014 John Chambers <jc:trillian.mit.edu>
B: John Johnson ed. "Twenty Four Country Dances", p.84 London 1766
K: C
% - - - - - - - - - - - - - - - - - - - - - - - - -
|: "C"cde "G"dBG | "Dm"def "Am"ecA "I"| "F"fga "C"gfe | "G7"dcB "C"c3 :|
|: "Am"abc' "Em"bag | "F"fga "C"gfe | "Dm"def "Am"edc | "F"afe "G"d3 |
| "C"cde "G"dBG | "Dm"def "Am"ecA | "F"fga "C"gfe | "G7"dcB "C"c3 :|
|: "F"aba a^g=g | "C"gag g^f=f | "Dm"fgf fed | "Am"cBA e3 |
| "C"cde "G"dBG | "Dm"def "Am"ecA | "F"fga "C"gfe | "G7"dcB "C"c3 :|
% - - - - - - - - - - - - - - - - - - - - - - - - -
% %begintext align
% % Half Right & Left .| the same back again :| cross
% % over 2 Cu .| lead up to the Top foot it and cast
% % off .|. Hands 6 round :|. Right & Left :|:
% %endtext
% - - - - - - - - - - - - - - - - - - - - - - - - -
